envolve-frontend/public/images/arrowDown.svg

<?xml version="1.0" encoding="iso-8859-1"?>
<!-- Generator: Adobe Illustrator 19.0.0, SVG Export Plug-In . SVG Version: 6.00 Build 0)  -->
<svg version="1.1" id="Capa_1" xmlns="http://www.w3.org/2000/svg" xmlns:xlink="http://www.w3.org/1999/xlink" x="0px" y="0px"
	 viewBox="0 0 490.688 490.688" style="enable-background:new 0 0 490.688 490.688;" xml:space="preserve">
<path style="fill:#FFC107;" d="M472.328,120.529L245.213,347.665L18.098,120.529c-4.237-4.093-10.99-3.975-15.083,0.262
	c-3.992,4.134-3.992,10.687,0,14.82l234.667,234.667c4.165,4.164,10.917,4.164,15.083,0l234.667-234.667
	c4.237-4.093,4.354-10.845,0.262-15.083c-4.093-4.237-10.845-4.354-15.083-0.262c-0.089,0.086-0.176,0.173-0.262,0.262
	L472.328,120.529z"/>
<path d="M245.213,373.415c-2.831,0.005-5.548-1.115-7.552-3.115L2.994,135.633c-4.093-4.237-3.975-10.99,0.262-15.083
	c4.134-3.992,10.687-3.992,14.82,0l227.136,227.115l227.115-227.136c4.093-4.237,10.845-4.354,15.083-0.262
	c4.237,4.093,4.354,10.845,0.262,15.083c-0.086,0.089-0.173,0.176-0.262,0.262L252.744,370.279
	C250.748,372.281,248.039,373.408,245.213,373.415z"/>
<g>
</g>
<g>
</g>
<g>
</g>
<g>
</g>
<g>
</g>
<g>
</g>
<g>
</g>
<g>
</g>
<g>
</g>
<g>
</g>
<g>
</g>
<g>
</g>
<g>
</g>
<g>
</g>
<g>
</g>
</svg>

<svg width="491" height="491" viewBox="0 0 491 491" fill="none" xmlns="http://www.w3.org/2000/svg">
<g clip-path="url(#clip0)">
<path d="M472.328 120.529L245.213 347.665L18.098 120.529C13.861 116.436 7.108 116.554 3.015 120.791C-0.977004 124.925 -0.977004 131.478 3.015 135.611L237.682 370.278C241.847 374.442 248.599 374.442 252.765 370.278L487.432 135.611C491.669 131.518 491.786 124.766 487.694 120.528C483.601 116.291 476.849 116.174 472.611 120.266C472.522 120.352 472.435 120.439 472.349 120.528L472.328 120.529Z" fill="#FFC107"/>
<path d="M245.213 373.415C242.382 373.42 239.665 372.3 237.661 370.3L2.99401 135.633C-1.09899 131.396 -0.980991 124.643 3.25601 120.55C7.39001 116.558 13.943 116.558 18.076 120.55L245.212 347.665L472.327 120.529C476.42 116.292 483.172 116.175 487.41 120.267C491.647 124.36 491.764 131.112 487.672 135.35C487.586 135.439 487.499 135.526 487.41 135.612L252.744 370.279C250.748 372.281 248.039 373.408 245.213 373.415Z" fill="#F7F7F7"/>
</g>
<defs>
<clipPath id="clip0">
<rect width="490.688" height="490.688" fill="white"/>
</clipPath>
</defs>
</svg>
